X:67
T:Dick Gossip
R:Reel
C:Trad
M:4/4
L:1/8
K:D
ef |: gB ~B2 gBaB | gB ~B2 gfed | cAeA fAeA | cAef gfef |
   | gB ~B2 gBaB | gB ~B2 gfed | cdef gfec |1dfec d2 ef:|2dfec d2 DE|
   |: F2 AF GFED | F2 AF GFED | E2 EF GFED | E2 EF GFED |
   | F2 AF GFED | F2 AF GFED | cdef gfec |1dfec d2 DE:|2dfec d2 ef |
